docs/.gitbook/assets/icon-headphones-16@dark.svg

<svg width="32" height="32" viewBox="0 0 16 16" fill="none" xmlns="http://www.w3.org/2000/svg">
<rect x="0" y="0" width="16" height="16" fill="#181c1f"/>
<path fill-rule="evenodd" clip-rule="evenodd" d="M2.5 9.25V10.6562V12.6756C2.5 12.7645 2.54723 12.8468 2.62403 12.8916L3.62403 13.4749C3.7907 13.5721 4 13.4519 4 13.259V9.25C4 9.11193 3.88807 9 3.75 9H2.75C2.61193 9 2.5 9.11193 2.5 9.25ZM1 10.6562V9.25V8.21296C1 4.29735 3.90453 1 7.63235 1H8.36765C12.0955 1 15 4.29735 15 8.21296V9.25V10.6562V12.6756C15 13.298 14.6694 13.8736 14.1318 14.1872L13.1318 14.7706C11.9651 15.4511 10.5 14.6096 10.5 13.259V9.25C10.5 8.2835 11.2835 7.5 12.25 7.5H13.25C13.3218 7.5 13.3927 7.50433 13.4623 7.51274C13.1494 4.6362 10.9331 2.5 8.36765 2.5H7.63235C5.0669 2.5 2.85059 4.6362 2.53774 7.51274C2.60732 7.50433 2.67815 7.5 2.75 7.5H3.75C4.7165 7.5 5.5 8.2835 5.5 9.25V13.259C5.5 14.6096 4.03487 15.4511 2.86823 14.7706L1.86823 14.1872C1.33059 13.8736 1 13.298 1 12.6756V10.6562ZM13.5 9.25C13.5 9.11193 13.3881 9 13.25 9H12.25C12.1119 9 12 9.11193 12 9.25V13.259C12 13.4519 12.2093 13.5721 12.376 13.4749L13.376 12.8916C13.4528 12.8468 13.5 12.7645 13.5 12.6756V10.6562V9.25Z" fill="#fff"/>
</svg>

<svg xmlns="http://www.w3.org/2000/svg" width="32" height="32" fill="none" viewBox="0 0 16 16"><path fill="#181c1f" d="M0 0h16v16H0z"/><path fill="#fff" fill-rule="evenodd" d="M2.5 9.25v3.426a.25.25 0 0 0 .124.216l1 .583A.25.25 0 0 0 4 13.259V9.25A.25.25 0 0 0 3.75 9h-1a.25.25 0 0 0-.25.25M1 10.656V8.213C1 4.297 3.905 1 7.632 1h.736C12.095 1 15 4.297 15 8.213v4.463a1.75 1.75 0 0 1-.868 1.511l-1 .584c-1.167.68-2.632-.161-2.632-1.512V9.25c0-.966.784-1.75 1.75-1.75h1q.108 0 .212.013C13.15 4.636 10.933 2.5 8.368 2.5h-.736c-2.565 0-4.781 2.136-5.094 5.013q.104-.013.212-.013h1c.966 0 1.75.784 1.75 1.75v4.009c0 1.35-1.465 2.192-2.632 1.512l-1-.584A1.75 1.75 0 0 1 1 12.676zM13.5 9.25a.25.25 0 0 0-.25-.25h-1a.25.25 0 0 0-.25.25v4.009c0 .193.21.313.376.216l1-.583a.25.25 0 0 0 .124-.216z" clip-rule="evenodd"/></svg>
